Sources/FrostedUI/Resources/Icons.xcassets/documentLines24.imageset/document-lines-24.svg

<svg width="24" height="24" viewBox="0 0 24 24" fill="none" xmlns="http://www.w3.org/2000/svg" data-fui-icon="true">
  <path
    d="M11.9219 2C12.6511 2.00007 13.3505 2.29002 13.8662 2.80566L19.1943 8.13379C19.71 8.64946 19.9999 9.3489 20 10.0781V19.25C20 20.7688 18.7688 22 17.25 22H6.75C5.23122 22 4 20.7688 4 19.25V4.75C4 3.23122 5.23122 2 6.75 2H11.9219ZM6.75 3.5C6.05964 3.5 5.5 4.05964 5.5 4.75V19.25C5.5 19.9404 6.05964 20.5 6.75 20.5H17.25C17.9404 20.5 18.5 19.9404 18.5 19.25V10.0781C18.5 10.052 18.4977 10.026 18.4961 10H14.75C13.2312 10 12 8.76878 12 7.25V3.50293C11.9741 3.5013 11.948 3.50001 11.9219 3.5H6.75ZM16.2188 16.125C16.633 16.125 16.9688 16.4608 16.9688 16.875C16.9688 17.2892 16.633 17.625 16.2188 17.625H7.78125C7.36704 17.625 7.03125 17.2892 7.03125 16.875C7.03125 16.4608 7.36704 16.125 7.78125 16.125H16.2188ZM12.2344 12.0156C12.6486 12.0156 12.9844 12.3514 12.9844 12.7656C12.9844 13.1798 12.6486 13.5156 12.2344 13.5156H7.78125C7.36704 13.5156 7.03125 13.1798 7.03125 12.7656C7.03125 12.3514 7.36704 12.0156 7.78125 12.0156H12.2344ZM13.5 7.25C13.5 7.94036 14.0596 8.5 14.75 8.5H17.4395L13.5 4.56055V7.25Z"
    fill="currentColor"
  />
</svg>

<svg xmlns="http://www.w3.org/2000/svg" width="24" height="24" fill="none" data-fui-icon="true" viewBox="0 0 24 24"><path fill="currentColor" d="M11.922 2c.73 0 1.428.29 1.944.806l5.328 5.328A2.75 2.75 0 0 1 20 10.078v9.172A2.75 2.75 0 0 1 17.25 22H6.75A2.75 2.75 0 0 1 4 19.25V4.75A2.75 2.75 0 0 1 6.75 2zM6.75 3.5c-.69 0-1.25.56-1.25 1.25v14.5c0 .69.56 1.25 1.25 1.25h10.5c.69 0 1.25-.56 1.25-1.25v-9.172q0-.039-.004-.078H14.75A2.75 2.75 0 0 1 12 7.25V3.503l-.078-.003zm9.469 12.625a.75.75 0 0 1 0 1.5H7.78a.75.75 0 0 1 0-1.5zm-3.985-4.11a.75.75 0 0 1 0 1.5H7.781a.75.75 0 0 1 0-1.5zM13.5 7.25c0 .69.56 1.25 1.25 1.25h2.69L13.5 4.56z"/></svg>
